X:1
T:Title
%%score { 1 | 2 }
L:1/8
Q:1/4=100
M:4/4
K:D
V:1 treble nm="Grand Piano"
V:2 bass 
V:1
 D2 F>A d3 A | BABA F2 D2 |[M:2/4] [A,DF][K:bass] [G,CE]2 [G,CE] | [F,A,D]2[K:treble] [A,CE]2 | %4
w: T.~C.~Neal * * * *||||
[M:4/4] [A,DF]6 z2 | D2 F>A d3 A | BABA F2 D2 |[M:2/4] [A,DF] [G,CE]2 [G,CE] | %8
w: ||||
 [A,CF]2[K:bass] [G,CE]2 |[M:4/4] [F,D]6 z2 | [Fd]3 [FA] [GB][FA][GB][FA] | F3 D FDFD | %12
w: ||||
[M:2/4] [DF] [CE]2 [CE] | [A,D]2 [CE]2 |[M:4/4] [DF]6 z2 | [Fd]3 [FA] [GB][FA][GB][FA] | %16
w: ||||
 F3 D FDFD |[M:2/4] [A,DF] [G,CE]2 [G,CE] | [A,CF]2[K:bass] [G,CE]2 |[M:4/4] [F,D]6 z2 |] %20
w: ||||
V:2
 D,2 F,>A, D3 A, | B,A,B,A, F,2 D,2 |[M:2/4] A,, A,,2 A,, | A,,2 A,,2 |[M:4/4] D,6 z2 | %5
 D,2 F,>A, D3 A, | B,A,B,A, F,2 D,2 |[M:2/4] A,, A,,2 A,, | A,,2 A,,2 |[M:4/4] D,6 z2 | %10
 [D,A,]3 [D,D] [D,D][D,D][D,D][D,D] | [D,A,D]3 [D,F,] [D,A,D][D,F,][D,A,D][D,F,] | %12
[M:2/4] [A,,A,] [A,,G,]2 [A,,G,] | [A,,F,]2 [A,,A,]2 |[M:4/4] [D,A,]6 z2 | %15
 [D,A,]3 [D,D] [D,D][D,D][D,D][D,D] | [D,A,D]3 [D,F,] [D,A,D][D,F,][D,A,D][D,F,] | %17
[M:2/4] A,, A,,2 A,, | A,,2 A,,2 |[M:4/4] D,6 z2 |] %20

